assets/images/logo.svg

<svg width="113" height="30" viewBox="0 0 113 30" fill="none" xmlns="http://www.w3.org/2000/svg">
<path d="M65.0243 22.8381C63.5479 24.378 61.6494 24.9998 59.5665 24.9998C57.5363 24.9998 55.3743 24.4055 53.9507 22.8646C52.1842 20.946 52 19.2433 52 16.7027V5H56.9826V16.0811C56.9826 17.8916 57.2727 19.8921 59.5142 19.8921C61.8609 19.8921 61.9926 17.9733 61.9926 16.0811V5H66.9756V16.7027C66.9754 19.0809 66.7115 21.1079 65.0243 22.8381Z" fill="white"/>
<path d="M80.4296 25L75.104 16.3515H75.0511V25H70.0677V5H75.0511V14.0001H75.104L80.6144 5H85.8343L79.3749 14.9731L86.2562 25H80.4296Z" fill="white"/>
<path d="M88.2428 25V5H99.0788V9.48652H93.0149V12.5941H99.0582V17.081H93.0149V20.5137H99.0788V24.9998H88.2428V25Z" fill="white"/>
<path d="M102.164 25V5H113V9.48652H106.936V12.5941H112.979V17.081H106.936V20.5137H113V24.9998H102.164V25Z" fill="white"/>
<path d="M4.46084 4.6405C5.53658 3.51968 7.02141 2.7923 8.67484 2.70077V0.00371042C6.27114 0.0960587 4.10998 1.12371 2.54513 2.73224L4.46084 4.6405Z" fill="white"/>
<path d="M2.77043 9.88017H0.0444262C0.258141 12.0381 1.23814 13.971 2.70876 15.4075L4.62447 13.4993C3.64516 12.5511 2.97228 11.2907 2.77043 9.88017Z" fill="white"/>
<path d="M2.71359 9.28141C2.70903 9.18398 2.70628 9.086 2.70628 8.98747C2.70628 7.51828 3.21552 6.16603 4.06555 5.09372L2.14074 3.17653C0.806571 4.74398 0 6.77125 0 8.98747C0 9.086 0.00427706 9.18343 0.00758833 9.28141H2.71359Z" fill="white"/>
<path d="M13.95 5.0393C14.8349 6.1347 15.3509 7.51855 15.3509 8.98747V10.3201C16.5423 10.9588 17.4838 11.9581 18.0572 13.1488V8.98747C18.0572 6.74679 17.2331 4.69918 15.8718 3.125L13.95 5.0393Z" fill="white"/>
<path d="M8.73031 15.2757V15.2776C7.35116 15.2134 6.08653 14.7065 5.07549 13.8972L3.15275 15.8123C4.73236 17.1624 6.78383 17.9804 9.0286 17.9804C9.64436 17.9804 10.2445 17.9168 10.825 17.7988V15.0256C10.2448 15.196 9.64436 15.2835 9.03591 15.2835C8.93326 15.2835 8.83144 15.2808 8.73031 15.2757Z" fill="white"/>
<path d="M23.4748 22.75C22.9272 23.4801 22.0525 23.9532 21.0671 23.9532C20.0812 23.9532 19.2068 23.4801 18.6586 22.7497V26.1175C19.3908 26.4583 20.207 26.6487 21.0671 26.6487C21.9267 26.6487 22.7429 26.4583 23.4748 26.1175V22.75Z" fill="white"/>
<path d="M18.0573 15.5414C17.951 13.6318 16.894 11.9712 15.3511 11.0208V20.9609C15.3511 21.0417 15.3545 21.1211 15.3615 21.2C15.4424 23.1368 16.5014 24.8256 18.0573 25.7911V15.5414Z" fill="white"/>
<path d="M15.465 2.68346C14.513 1.71985 13.3448 0.968558 12.0381 0.508603C11.1707 0.202974 10.2423 0.0262478 9.27598 0V2.69555C9.9116 2.72001 10.5363 2.83861 11.1361 3.04983C12.069 3.37841 12.8884 3.91271 13.5508 4.58993L15.465 2.68346Z" fill="white"/>
<path d="M6.92415 6.84724C7.00582 6.76671 7.09661 6.69484 7.18422 6.62077C7.69346 6.22568 8.33323 5.98945 9.02901 5.98945C10.6878 5.98945 12.0327 7.32905 12.0327 8.98128C12.0327 8.98417 12.0325 8.98692 12.0325 8.98967H12.0381V17.3925C13.5987 16.4252 14.6596 14.7308 14.7361 12.7878C14.7415 12.7233 14.7434 12.6579 14.7445 12.5923V8.98967C14.7445 8.91106 14.7414 8.83287 14.7346 8.75564C14.615 5.72395 12.1016 3.29389 9.02901 3.29389C5.87999 3.29389 3.31858 5.84529 3.31858 8.98142C3.31858 12.0179 5.71981 14.506 8.73044 14.6614V14.6716C8.83144 14.6769 8.9334 14.6799 9.03605 14.6799C9.66091 14.6799 10.2622 14.5774 10.8251 14.3911V14.3773C10.575 14.4208 10.3182 14.4441 10.0558 14.4441C7.59357 14.4441 5.59757 12.4563 5.59757 10.0038C5.59757 8.78477 6.09233 7.68209 6.89103 6.87995C6.90193 6.86895 6.91297 6.85796 6.92415 6.84724Z" fill="white"/>
<path d="M14.9609 22.6486C14.8175 22.1147 14.7445 21.5644 14.7445 21.0135V15.2449C14.1746 16.4436 13.2325 17.4504 12.0383 18.0945V21.0134C12.0383 21.8204 12.1468 22.6021 12.3468 23.3461C13.3538 27.0891 16.723 29.8682 20.7661 30V27.3031C18.0353 27.1739 15.6731 25.297 14.9609 22.6486Z" fill="white"/>
<path d="M37.6674 4.6405C36.5919 3.51968 35.1065 2.7923 33.4534 2.70077V0.00371042C35.8568 0.0960587 38.0182 1.12371 39.5831 2.73224L37.6674 4.6405Z" fill="white"/>
<path d="M39.3575 9.88017H42.0838C41.8698 12.0381 40.8901 13.971 39.4192 15.4075L37.5035 13.4993C38.4831 12.5511 39.1554 11.2907 39.3575 9.88017Z" fill="white"/>
<path d="M39.4141 9.28141C39.4189 9.18398 39.4217 9.086 39.4217 8.98747C39.4217 7.51828 38.9124 6.16603 38.0624 5.09372L39.9875 3.17653C41.3216 4.74398 42.1277 6.77125 42.1277 8.98747C42.1277 9.086 42.1237 9.18343 42.1206 9.28141H39.4141Z" fill="white"/>
<path d="M28.1778 5.0393C27.2929 6.1347 26.7772 7.51855 26.7772 8.98747V10.3201C25.5858 10.9588 24.6443 11.9581 24.0709 13.1488V8.98747C24.0709 6.74679 24.895 4.69918 26.2563 3.125L28.1778 5.0393Z" fill="white"/>
<path d="M33.3978 15.2757V15.2776C34.7769 15.2134 36.0413 14.7065 37.0526 13.8972L38.9753 15.8123C37.3957 17.1624 35.3442 17.9804 33.0995 17.9804C32.484 17.9804 31.8834 17.9168 31.303 17.7988V15.0256C31.8831 15.196 32.4833 15.2835 33.0923 15.2835C33.1947 15.2835 33.2965 15.2808 33.3978 15.2757Z" fill="white"/>
<path d="M24.0709 15.5414C24.1773 13.6318 25.2342 11.9712 26.7772 11.0208V20.9609C26.7772 21.0417 26.7737 21.1211 26.7664 21.2C26.6855 23.1368 25.627 24.8256 24.0709 25.7911V15.5414Z" fill="white"/>
<path d="M26.6632 2.68346C27.6149 1.71985 28.7831 0.968558 30.0901 0.508603C30.9575 0.202836 31.8859 0.0262478 32.852 0V2.69555C32.2166 2.72001 31.5919 2.83861 30.9923 3.04983C30.0588 3.37841 29.2396 3.91271 28.577 4.58993L26.6632 2.68346Z" fill="white"/>
<path d="M35.2023 6.84724C35.1206 6.76671 35.0298 6.69484 34.9422 6.62077C34.433 6.22568 33.7935 5.98945 33.0974 5.98945C31.4389 5.98945 30.0938 7.32905 30.0938 8.98128C30.0938 8.98417 30.0938 8.98692 30.0938 8.98967H30.0882V17.3925C28.5279 16.4252 27.4667 14.7308 27.3902 12.7878C27.3848 12.7233 27.3828 12.6579 27.3817 12.5923V8.98967C27.3817 8.91106 27.3852 8.83287 27.3919 8.75564C27.511 5.72395 30.025 3.29389 33.0973 3.29389C36.246 3.29389 38.8077 5.84529 38.8077 8.98142C38.8077 12.0179 36.4062 14.506 33.3958 14.6614V14.6716C33.2948 14.6769 33.1929 14.6799 33.0905 14.6799C32.4654 14.6799 31.8641 14.5774 31.3012 14.3911V14.3773C31.5515 14.4208 31.8081 14.4441 32.0705 14.4441C34.5324 14.4441 36.5287 12.4563 36.5287 10.0038C36.5287 8.78477 36.034 7.68209 35.2352 6.87995C35.2246 6.86895 35.2136 6.85796 35.2023 6.84724Z" fill="white"/>
<path d="M27.1657 22.6486C27.309 22.1147 27.3817 21.5644 27.3817 21.0135V15.2449C27.9517 16.4436 28.8937 17.4504 30.088 18.0945V21.0134C30.088 21.8204 29.9797 22.6021 29.7795 23.3461C28.7725 27.0891 25.4033 29.8682 21.3602 30V27.3031C24.091 27.1739 26.4532 25.297 27.1657 22.6486Z" fill="white"/>
</svg>

<?xml version="1.0" encoding="utf-8"?>
<!-- Generator: Adobe Illustrator 16.0.0, SVG Export Plug-In . SVG Version: 6.00 Build 0)  -->
<!DOCTYPE svg PUBLIC "-//W3C//DTD SVG 1.1//EN" "http://www.w3.org/Graphics/SVG/1.1/DTD/svg11.dtd">
<svg version="1.1" id="Layer_1" xmlns="http://www.w3.org/2000/svg" xmlns:xlink="http://www.w3.org/1999/xlink" x="0px" y="0px"
	 width="133.938px" height="30px" viewBox="0 0 133.938 30" enable-background="new 0 0 133.938 30" xml:space="preserve">
<path fill="#FFFFFF" d="M4.461,4.641c1.076-1.121,2.561-1.848,4.214-1.94V0.004c-2.404,0.092-4.565,1.12-6.13,2.729L4.461,4.641z"/>
<path fill="#FFFFFF" d="M2.771,9.88H0.044c0.214,2.158,1.194,4.091,2.665,5.527L4.625,13.5C3.645,12.551,2.972,11.291,2.771,9.88z"
	/>
<path fill="#FFFFFF" d="M2.713,9.281C2.709,9.184,2.706,9.086,2.706,8.987c0-1.469,0.509-2.821,1.359-3.894L2.141,3.176
	C0.807,4.744,0,6.771,0,8.987c0,0.099,0.004,0.196,0.008,0.294H2.713z"/>
<path fill="#FFFFFF" d="M13.95,5.04c0.885,1.095,1.401,2.479,1.401,3.948v1.333c1.191,0.639,2.133,1.638,2.706,2.829V8.987
	c0-2.241-0.824-4.288-2.186-5.862L13.95,5.04z"/>
<path fill="#FFFFFF" d="M8.73,15.276v0.002c-1.379-0.064-2.644-0.571-3.655-1.381l-1.923,1.916c1.58,1.35,3.631,2.168,5.876,2.168
	c0.616,0,1.216-0.063,1.796-0.182v-2.773c-0.581,0.17-1.181,0.258-1.789,0.258C8.933,15.284,8.832,15.281,8.73,15.276z"/>
<path fill="#FFFFFF" d="M23.475,22.75c-0.547,0.73-1.422,1.203-2.408,1.203s-1.86-0.473-2.408-1.203v3.367
	c0.732,0.342,1.548,0.531,2.408,0.531s1.676-0.189,2.408-0.531V22.75z"/>
<path fill="#FFFFFF" d="M18.057,15.541c-0.106-1.909-1.163-3.57-2.706-4.52v9.94c0,0.08,0.003,0.16,0.01,0.239
	c0.081,1.937,1.14,3.626,2.696,4.591V15.541z"/>
<path fill="#FFFFFF" d="M15.465,2.684c-0.952-0.964-2.12-1.715-3.427-2.175C11.171,0.203,10.242,0.026,9.276,0v2.696
	c0.636,0.024,1.26,0.143,1.86,0.354c0.933,0.329,1.752,0.863,2.415,1.54L15.465,2.684z"/>
<path fill="#FFFFFF" d="M6.924,6.847c0.082-0.081,0.172-0.152,0.26-0.227c0.509-0.395,1.149-0.631,1.845-0.631
	c1.659,0,3.004,1.34,3.004,2.992c0,0.003,0,0.005,0,0.008h0.005v8.403c1.561-0.967,2.622-2.662,2.698-4.605
	c0.005-0.064,0.007-0.13,0.008-0.195V8.99c0-0.079-0.003-0.157-0.01-0.234c-0.119-3.031-2.633-5.461-5.706-5.461
	c-3.149,0-5.71,2.551-5.71,5.688c0,3.037,2.401,5.524,5.412,5.68v0.01c0.101,0.005,0.203,0.008,0.306,0.008
	c0.625,0,1.226-0.102,1.789-0.289v-0.014c-0.25,0.043-0.507,0.066-0.77,0.066c-2.462,0-4.458-1.987-4.458-4.44
	c0-1.219,0.495-2.322,1.293-3.124C6.902,6.869,6.913,6.858,6.924,6.847z"/>
<path fill="#FFFFFF" d="M14.961,22.648c-0.144-0.533-0.216-1.084-0.216-1.635v-5.769c-0.57,1.199-1.512,2.206-2.707,2.849v2.92
	c0,0.807,0.109,1.588,0.309,2.332c1.007,3.744,4.376,6.522,8.419,6.654v-2.697C18.035,27.174,15.673,25.297,14.961,22.648z"/>
<path fill="#FFFFFF" d="M37.667,4.641c-1.076-1.121-2.561-1.848-4.214-1.94V0.004c2.403,0.092,4.564,1.12,6.129,2.729L37.667,4.641z
	"/>
<path fill="#FFFFFF" d="M39.357,9.88h2.727c-0.214,2.158-1.194,4.091-2.665,5.527L37.503,13.5
	C38.483,12.551,39.155,11.291,39.357,9.88z"/>
<path fill="#FFFFFF" d="M39.414,9.281c0.005-0.097,0.008-0.195,0.008-0.294c0-1.469-0.509-2.821-1.359-3.894l1.925-1.917
	c1.334,1.568,2.141,3.595,2.141,5.811c0,0.099-0.004,0.196-0.007,0.294H39.414z"/>
<path fill="#FFFFFF" d="M28.178,5.04c-0.885,1.095-1.4,2.479-1.4,3.948v1.333c-1.191,0.639-2.133,1.638-2.707,2.829V8.987
	c0-2.241,0.824-4.288,2.186-5.862L28.178,5.04z"/>
<path fill="#FFFFFF" d="M33.398,15.276v0.002c1.379-0.064,2.644-0.571,3.655-1.381l1.922,1.916c-1.58,1.35-3.631,2.168-5.875,2.168
	c-0.616,0-1.216-0.063-1.796-0.182v-2.773c0.58,0.17,1.18,0.258,1.789,0.258C33.195,15.284,33.296,15.281,33.398,15.276z"/>
<path fill="#FFFFFF" d="M24.071,15.541c0.106-1.909,1.164-3.57,2.707-4.52v9.94c0,0.08-0.003,0.16-0.011,0.239
	c-0.081,1.937-1.14,3.626-2.696,4.591V15.541z"/>
<path fill="#FFFFFF" d="M26.663,2.684c0.952-0.964,2.12-1.715,3.427-2.175C30.958,0.203,31.886,0.026,32.852,0v2.696
	c-0.635,0.024-1.26,0.143-1.86,0.354c-0.934,0.329-1.752,0.863-2.415,1.54L26.663,2.684z"/>
<path fill="#FFFFFF" d="M35.202,6.847c-0.082-0.081-0.172-0.152-0.26-0.227c-0.509-0.395-1.149-0.631-1.845-0.631
	c-1.658,0-3.003,1.34-3.003,2.992c0,0.003,0,0.005,0,0.008h-0.005v8.403c-1.561-0.967-2.622-2.662-2.698-4.605
	c-0.005-0.064-0.007-0.13-0.008-0.195V8.99c0-0.079,0.003-0.157,0.01-0.234c0.119-3.031,2.633-5.461,5.705-5.461
	c3.149,0,5.71,2.551,5.71,5.688c0,3.037-2.401,5.524-5.412,5.68v0.01c-0.101,0.005-0.203,0.008-0.306,0.008
	c-0.625,0-1.226-0.102-1.789-0.289v-0.014c0.25,0.043,0.507,0.066,0.769,0.066c2.462,0,4.458-1.987,4.458-4.44
	c0-1.219-0.495-2.322-1.293-3.124C35.225,6.869,35.213,6.858,35.202,6.847z"/>
<path fill="#FFFFFF" d="M27.166,22.648c0.144-0.533,0.216-1.084,0.216-1.635v-5.769c0.57,1.199,1.512,2.206,2.706,2.849v2.92
	c0,0.807-0.108,1.588-0.309,2.332C28.772,27.09,25.403,29.868,21.36,30v-2.697C24.091,27.174,26.453,25.297,27.166,22.648z"/>
<path fill="#FFFFFF" d="M65.324,22.854c-1.511,1.536-3.452,2.157-5.583,2.157c-2.077,0-4.29-0.594-5.745-2.132
	C52.188,20.967,52,19.267,52,16.732l0.002-11.708h5.099l-0.002,11.708c0,1.807,0.295,3.802,2.588,3.802
	c2.4,0,2.535-1.914,2.535-3.802l0.002-11.708h5.098l-0.002,11.708C67.319,19.104,67.05,21.128,65.324,22.854z"/>
<path fill="#FFFFFF" d="M81.431,24.984l-7.606-12.138l-0.055,0.027l0.136,12.111h-4.882V5.025h4.397l7.712,12.542l0.055-0.054
	L80.972,5.025h4.882v19.959H81.431z"/>
<path fill="#FFFFFF" d="M87.55,24.984V5.025h5.099v19.959H87.55z"/>
<path fill="#FFFFFF" d="M104.84,25.355c-5.638,0-10.493-4.372-10.493-10.115c0-1.483,0.243-2.886,0.782-4.261
	c0.298-0.782,0.782-1.564,1.295-2.238c2.05-2.697,5.044-4.1,8.44-4.1c5.827,0,10.548,4.477,10.548,10.357
	C115.412,20.905,110.691,25.355,104.84,25.355z M104.893,9.118c-3.265,0-5.447,2.697-5.447,5.826c0,3.184,2.183,5.932,5.5,5.932
	c3.212,0,5.368-2.803,5.368-5.851C110.313,11.922,108.157,9.118,104.893,9.118z"/>
<path fill="#FFFFFF" d="M129.516,24.977l-7.605-12.137l-0.053,0.027l0.135,12.11h-4.882V5.018h4.396l7.713,12.541l0.057-0.053
	l-0.217-12.488h4.88v19.958H129.516z"/>
</svg>
